src/file.ts.svg

<svg width="32" height="32" viewBox="0 0 32 32" fill="none" xmlns="http://www.w3.org/2000/svg">
<path d="M8.4 23V11.66H5V9H15V11.66H11.6V23H8.4ZM17 22.15L17.67 19.63C18.218 19.8878 18.791 20.0888 19.38 20.23C20.0333 20.3982 20.7054 20.4822 21.38 20.48C21.9799 20.5157 22.5774 20.3767 23.1 20.08C23.2864 19.9689 23.4401 19.8105 23.5454 19.6208C23.6508 19.4311 23.7041 19.2169 23.7 19C23.6935 18.8018 23.6403 18.6079 23.5447 18.4342C23.4491 18.2604 23.3139 18.1116 23.15 18C22.5674 17.6212 21.9299 17.3345 21.26 17.15C18.5933 16.2567 17.26 14.9233 17.26 13.15C17.2569 12.5864 17.3907 12.0304 17.65 11.53C17.9133 11.0217 18.2854 10.5779 18.74 10.23C19.261 9.83687 19.8513 9.54514 20.48 9.37C21.1958 9.14424 21.9397 9.0197 22.69 9C23.9679 8.96663 25.2386 9.20169 26.42 9.69L25.68 12.15C24.7396 11.7166 23.7155 11.4947 22.68 11.5C22.1305 11.4673 21.5837 11.5996 21.11 11.88C20.9467 11.9753 20.8105 12.1108 20.7142 12.2736C20.618 12.4363 20.5649 12.621 20.56 12.81C20.5577 12.9733 20.5955 13.1347 20.67 13.28C20.7433 13.4229 20.8415 13.5516 20.96 13.66C21.1234 13.8005 21.305 13.9182 21.5 14.01C21.74 14.13 21.99 14.24 22.25 14.35L23.25 14.72C24.3177 15.0355 25.2947 15.6012 26.1 16.37C26.705 17.0239 27.0283 17.8896 27 18.78C27.0027 19.2261 26.9283 19.6693 26.78 20.09C26.6254 20.5138 26.3912 20.9041 26.09 21.24C25.7607 21.6087 25.372 21.9196 24.94 22.16C24.422 22.439 23.8662 22.6412 23.29 22.76C22.5837 22.9129 21.8626 22.9867 21.14 22.98C20.3599 22.9809 19.582 22.8971 18.82 22.73C18.1915 22.6133 17.5801 22.4184 17 22.15Z" fill="#497ECF"/>
</svg>

<svg id="Bases" xmlns="http://www.w3.org/2000/svg" viewBox="0 0 32 32"><defs><style>.cls-1{fill:#497ecf;}</style></defs><title>file.ts</title><path id="_复合路径_" data-name="&lt;复合路径&gt;" class="cls-1" d="M8.4,23V11.66H5V9H15v2.66H11.6V23Zm8.6-.85.67-2.52a8.88,8.88,0,0,0,1.71.6,7.92,7.92,0,0,0,2,.25,3.11,3.11,0,0,0,1.72-.4,1.23,1.23,0,0,0,.6-1.08,1.26,1.26,0,0,0-.55-1,6.76,6.76,0,0,0-1.89-.85q-4-1.34-4-4a3.48,3.48,0,0,1,.39-1.62,3.89,3.89,0,0,1,1.09-1.3,5.21,5.21,0,0,1,1.74-.86A8.05,8.05,0,0,1,22.69,9a9.14,9.14,0,0,1,3.73.69l-.74,2.46a7.08,7.08,0,0,0-3-.65,2.76,2.76,0,0,0-1.57.38,1.11,1.11,0,0,0-.55.93,1,1,0,0,0,.11.47,1.35,1.35,0,0,0,.29.38,2.39,2.39,0,0,0,.54.35c.24.12.49.23.75.34l1,.37a7,7,0,0,1,2.85,1.65A3.39,3.39,0,0,1,27,18.78a3.87,3.87,0,0,1-.22,1.31,3.54,3.54,0,0,1-.69,1.15,4.43,4.43,0,0,1-1.15.92,6.06,6.06,0,0,1-1.65.6,9.73,9.73,0,0,1-2.15.22,10.77,10.77,0,0,1-2.32-.25A7.67,7.67,0,0,1,17,22.15Z"/></svg>
